src/qt/pivx/res/img/ic-transaction-received.svg

<?xml version="1.0" encoding="UTF-8" standalone="no"?>
<svg
   xmlns:dc="http://purl.org/dc/elements/1.1/"
   xmlns:cc="http://creativecommons.org/ns#"
   xmlns:rdf="http://www.w3.org/1999/02/22-rdf-syntax-ns#"
   xmlns:svg="http://www.w3.org/2000/svg"
   xmlns="http://www.w3.org/2000/svg"
   xmlns:sodipodi="http://sodipodi.sourceforge.net/DTD/sodipodi-0.dtd"
   xmlns:inkscape="http://www.inkscape.org/namespaces/inkscape"
   id="Layer_1"
   data-name="Layer 1"
   viewBox="0 0 24 24"
   version="1.1"
   sodipodi:docname="ic-transaction-received.svg"
   inkscape:version="1.0.2 (e86c870879, 2021-01-15, custom)">
  <sodipodi:namedview
     pagecolor="#ffffff"
     bordercolor="#666666"
     borderopacity="1"
     objecttolerance="10"
     gridtolerance="10"
     guidetolerance="10"
     inkscape:pageopacity="0"
     inkscape:pageshadow="2"
     inkscape:window-width="3840"
     inkscape:window-height="2066"
     id="namedview10"
     showgrid="false"
     inkscape:zoom="30.625"
     inkscape:cx="12"
     inkscape:cy="12"
     inkscape:window-x="3829"
     inkscape:window-y="-11"
     inkscape:window-maximized="1"
     inkscape:current-layer="Layer_1" />
  <metadata
     id="metadata17">
    <rdf:RDF>
      <cc:Work
         rdf:about="">
        <dc:format>image/svg+xml</dc:format>
        <dc:type
           rdf:resource="http://purl.org/dc/dcmitype/StillImage" />
        <dc:title />
      </cc:Work>
    </rdf:RDF>
  </metadata>
  <defs
     id="defs4">
    <style
       id="style2">.cls-1{fill:none;}.cls-2{fill:#3aa34b;}</style>
  </defs>
  <rect
     class="cls-1"
     width="24"
     height="24"
     id="rect6" />
  <g
     id="g838"
     transform="translate(0,-0.32653061)">
    <path
       class="cls-2"
       d="m 22.64,15.68 a 0.57,0.57 0 0 0 -0.57,0.57 v 2.18 a 2.28,2.28 0 0 1 -2.28,2.28 H 4.21 A 2.28,2.28 0 0 1 1.93,18.43 v -2.18 a 0.58,0.58 0 0 0 -1.15,0 v 2.18 a 3.44,3.44 0 0 0 3.43,3.43 h 15.58 a 3.44,3.44 0 0 0 3.43,-3.43 v -2.18 a 0.57,0.57 0 0 0 -0.58,-0.57 z"
       id="path8"
       style="fill:#008d36;fill-opacity:1" />
    <path
       class="cls-2"
       d="M 19.18,17.93 H 4.82 a 0.57,0.57 0 0 0 -0.57,0.57 0.58,0.58 0 0 0 0.57,0.57 h 14.36 a 0.58,0.58 0 0 0 0.57,-0.57 0.57,0.57 0 0 0 -0.57,-0.57 z"
       id="path10"
       style="fill:#008d36;fill-opacity:1" />
    <path
       class="cls-2"
       d="m 17.78,9.89 a 0.58,0.58 0 0 0 -0.81,0 l -4.4,3.93 V 2.71 a 0.57,0.57 0 0 0 -1.14,0 V 13.78 L 7,9.85 a 0.58,0.58 0 0 0 -0.81,0 0.57,0.57 0 0 0 0,0.81 L 11.05,15 A 1.4,1.4 0 0 0 13,15 l 4.78,-4.27 a 0.57,0.57 0 0 0 0,-0.84 z"
       id="path12"
       style="fill:#008d36;fill-opacity:1" />
  </g>
</svg>

<?xml version="1.0" encoding="UTF-8" standalone="no"?>
<svg
   xmlns:dc="http://purl.org/dc/elements/1.1/"
   xmlns:cc="http://creativecommons.org/ns#"
   xmlns:rdf="http://www.w3.org/1999/02/22-rdf-syntax-ns#"
   xmlns:svg="http://www.w3.org/2000/svg"
   xmlns="http://www.w3.org/2000/svg"
   id="Layer_1"
   data-name="Layer 1"
   viewBox="0 0 24 24"
   version="1.1">
  <metadata
     id="metadata17">
    <rdf:RDF>
      <cc:Work
         rdf:about="">
        <dc:format>image/svg+xml</dc:format>
        <dc:type
           rdf:resource="http://purl.org/dc/dcmitype/StillImage" />
        <dc:title></dc:title>
      </cc:Work>
    </rdf:RDF>
  </metadata>
  <defs
     id="defs4">
    <style
       id="style2">.cls-1{fill:none;}.cls-2{fill:#3aa34b;}</style>
  </defs>
  <rect
     class="cls-1"
     width="24"
     height="24"
     id="rect6" />
  <path
     class="cls-2"
     d="M22.64,15.68a.57.57,0,0,0-.57.57v2.18a2.28,2.28,0,0,1-2.28,2.28H4.21a2.28,2.28,0,0,1-2.28-2.28V16.25a.58.58,0,0,0-1.15,0v2.18a3.44,3.44,0,0,0,3.43,3.43H19.79a3.44,3.44,0,0,0,3.43-3.43V16.25A.57.57,0,0,0,22.64,15.68Z"
     id="path8"
     style="fill:#008d36;fill-opacity:1" />
  <path
     class="cls-2"
     d="M19.18,17.93H4.82a.57.57,0,0,0-.57.57.58.58,0,0,0,.57.57H19.18a.58.58,0,0,0,.57-.57A.57.57,0,0,0,19.18,17.93Z"
     id="path10"
     style="fill:#008d36;fill-opacity:1" />
  <path
     class="cls-2"
     d="M17.78,9.89a.58.58,0,0,0-.81,0l-4.4,3.93V2.71a.57.57,0,0,0-1.14,0V13.78L7,9.85a.58.58,0,0,0-.81,0,.57.57,0,0,0,0,.81L11.05,15A1.4,1.4,0,0,0,13,15l4.78-4.27A.57.57,0,0,0,17.78,9.89Z"
     id="path12"
     style="fill:#008d36;fill-opacity:1" />
</svg>
